Avidclan_Website/assets/images/icons/easy-refactoring-ic.svg

<?xml version="1.0" encoding="utf-8"?>
<!-- Generator: Adobe Illustrator 24.1.1, SVG Export Plug-In . SVG Version: 6.00 Build 0)  -->
<svg version="1.1" id="Layer_1" xmlns="http://www.w3.org/2000/svg" xmlns:xlink="http://www.w3.org/1999/xlink" x="0px" y="0px"
	 viewBox="0 0 473.6 473.6" style="enable-background:new 0 0 473.6 473.6;" xml:space="preserve">
<style type="text/css">
	.st0{clip-path:url(#SVGID_2_);}
	.st1{fill:#007AFB;}
	.st2{clip-path:url(#SVGID_4_);}
</style>
<g>
	<defs>
		<rect id="SVGID_1_" x="0" width="236.8" height="229.8"/>
	</defs>
	<clipPath id="SVGID_2_">
		<use xlink:href="#SVGID_1_"  style="overflow:visible;"/>
	</clipPath>
	<g class="st0">
		<path class="st1" d="M31.6,228.9h173.6c8.4,0,16.4-3.3,22.3-9.3c5.9-5.9,9.2-13.9,9.2-22.3V31.6c0-8.4-3.3-16.4-9.2-22.3
			C221.6,3.3,213.6,0,205.2,0H31.6C23.2,0,15.2,3.3,9.2,9.3C3.3,15.2,0,23.2,0,31.6v165.8c0,8.4,3.3,16.4,9.2,22.3
			C15.2,225.6,23.2,228.9,31.6,228.9z M205.2,213.1H31.6c-4.2,0-8.2-1.7-11.2-4.6c-3-3-4.6-7-4.6-11.2V78.9H221v118.4
			c0,4.2-1.7,8.2-4.6,11.2C213.4,211.5,209.4,213.1,205.2,213.1L205.2,213.1z M31.6,15.8h173.7c4.2,0,8.2,1.7,11.2,4.6
			c3,3,4.6,7,4.6,11.2v31.6H15.8V31.6c0-4.2,1.7-8.2,4.6-11.2C23.4,17.4,27.4,15.8,31.6,15.8L31.6,15.8z"/>
	</g>
</g>
<g>
	<defs>
		<rect id="SVGID_3_" x="236.8" y="243.8" width="236.8" height="229.8"/>
	</defs>
	<clipPath id="SVGID_4_">
		<use xlink:href="#SVGID_3_"  style="overflow:visible;"/>
	</clipPath>
	<g class="st2">
		<path class="st1" d="M442,244.7H268.4c-8.4,0-16.4,3.3-22.3,9.2c-5.9,5.9-9.3,14-9.3,22.3V442c0,8.4,3.3,16.4,9.3,22.3
			c5.9,5.9,13.9,9.3,22.3,9.3H442c8.4,0,16.4-3.3,22.3-9.3c5.9-5.9,9.3-13.9,9.3-22.3V276.3c0-8.4-3.3-16.4-9.3-22.3
			C458.4,248,450.4,244.7,442,244.7L442,244.7z M268.4,260.5H442c4.2,0,8.2,1.7,11.2,4.6c3,3,4.6,7,4.6,11.2v31.6l-205.2,0v-31.6
			c0-4.2,1.7-8.2,4.6-11.2C260.2,262.1,264.2,260.5,268.4,260.5L268.4,260.5z M442,457.8H268.4c-4.2,0-8.2-1.7-11.2-4.6
			s-4.6-7-4.6-11.2V323.6h205.2V442c0,4.2-1.7,8.2-4.6,11.2S446.2,457.8,442,457.8L442,457.8z"/>
	</g>
</g>
<path class="st1" d="M39.5,47.4h7.9c4.4,0,7.9-3.5,7.9-7.9s-3.5-7.9-7.9-7.9h-7.9c-4.4,0-7.9,3.5-7.9,7.9S35.1,47.4,39.5,47.4z"/>
<path class="st1" d="M78.9,47.4h7.9c4.4,0,7.9-3.5,7.9-7.9s-3.5-7.9-7.9-7.9h-7.9c-4.4,0-7.9,3.5-7.9,7.9S74.6,47.4,78.9,47.4z"/>
<path class="st1" d="M150,47.4h47.4h0c4.4,0,7.9-3.5,7.9-7.9s-3.5-7.9-7.9-7.9H150c-4.4,0-7.9,3.5-7.9,7.9S145.6,47.4,150,47.4
	L150,47.4z"/>
<path class="st1" d="M47.4,102.6h-7.9c-4.4,0-7.9,3.5-7.9,7.9s3.5,7.9,7.9,7.9h7.9c4.4,0,7.9-3.5,7.9-7.9S51.7,102.6,47.4,102.6z"/>
<path class="st1" d="M47.4,134.2h-7.9c-4.4,0-7.9,3.5-7.9,7.9s3.5,7.9,7.9,7.9h7.9c4.4,0,7.9-3.5,7.9-7.9S51.7,134.2,47.4,134.2z"/>
<path class="st1" d="M47.4,165.7h-7.9c-4.4,0-7.9,3.5-7.9,7.9c0,4.4,3.5,7.9,7.9,7.9h7.9c4.4,0,7.9-3.5,7.9-7.9
	C55.3,169.3,51.7,165.7,47.4,165.7z"/>
<path class="st1" d="M157.9,102.6H150c-4.4,0-7.9,3.5-7.9,7.9s3.5,7.9,7.9,7.9h7.9h0c4.4,0,7.9-3.5,7.9-7.9S162.2,102.6,157.9,102.6
	z"/>
<path class="st1" d="M78.9,118.4h39.5c4.4,0,7.9-3.5,7.9-7.9s-3.5-7.9-7.9-7.9H78.9c-4.4,0-7.9,3.5-7.9,7.9S74.6,118.4,78.9,118.4
	L78.9,118.4z"/>
<path class="st1" d="M197.3,165.7h-7.9c-4.4,0-7.9,3.5-7.9,7.9c0,4.4,3.5,7.9,7.9,7.9h7.9h0c4.4,0,7.9-3.5,7.9-7.9
	C205.2,169.3,201.7,165.7,197.3,165.7z"/>
<path class="st1" d="M157.9,165.7H78.9c-4.4,0-7.9,3.5-7.9,7.9c0,4.4,3.5,7.9,7.9,7.9h78.9c4.4,0,7.9-3.5,7.9-7.9
	C165.8,169.3,162.2,165.7,157.9,165.7z"/>
<path class="st1" d="M78.9,150h63.1c4.4,0,7.9-3.5,7.9-7.9s-3.5-7.9-7.9-7.9H78.9c-4.4,0-7.9,3.5-7.9,7.9S74.6,150,78.9,150z"/>
<path class="st1" d="M276.3,292h7.9c4.4,0,7.9-3.5,7.9-7.9s-3.5-7.9-7.9-7.9h-7.9c-4.4,0-7.9,3.5-7.9,7.9S271.9,292,276.3,292z"/>
<path class="st1" d="M315.7,292h7.9c4.4,0,7.9-3.5,7.9-7.9s-3.5-7.9-7.9-7.9h-7.9c-4.4,0-7.9,3.5-7.9,7.9S311.4,292,315.7,292z"/>
<path class="st1" d="M386.8,292h47.4c4.4,0,7.9-3.5,7.9-7.9s-3.5-7.9-7.9-7.9h-47.4c-4.4,0-7.9,3.5-7.9,7.9S382.4,292,386.8,292z"/>
<path class="st1" d="M284.2,347.3h-7.9c-4.4,0-7.9,3.5-7.9,7.9c0,4.4,3.5,7.9,7.9,7.9h7.9c4.4,0,7.9-3.5,7.9-7.9
	C292,350.8,288.5,347.3,284.2,347.3z"/>
<path class="st1" d="M284.2,378.9h-7.9c-4.4,0-7.9,3.5-7.9,7.9s3.5,7.9,7.9,7.9h7.9c4.4,0,7.9-3.5,7.9-7.9S288.5,378.9,284.2,378.9z
	"/>
<path class="st1" d="M284.2,410.4h-7.9c-4.4,0-7.9,3.5-7.9,7.9c0,4.4,3.5,7.9,7.9,7.9h7.9c4.4,0,7.9-3.5,7.9-7.9
	C292,414,288.5,410.4,284.2,410.4z"/>
<path class="st1" d="M394.7,347.3h-7.9c-4.4,0-7.9,3.5-7.9,7.9c0,4.4,3.5,7.9,7.9,7.9h7.9c4.4,0,7.9-3.5,7.9-7.9
	C402.5,350.8,399,347.3,394.7,347.3z"/>
<path class="st1" d="M315.7,363.1h39.5c4.4,0,7.9-3.5,7.9-7.9c0-4.4-3.5-7.9-7.9-7.9h-39.5c-4.4,0-7.9,3.5-7.9,7.9
	C307.8,359.5,311.4,363.1,315.7,363.1z"/>
<path class="st1" d="M434.1,410.4h-7.9c-4.4,0-7.9,3.5-7.9,7.9c0,4.4,3.5,7.9,7.9,7.9h7.9c4.4,0,7.9-3.5,7.9-7.9
	C442,414,438.5,410.4,434.1,410.4z"/>
<path class="st1" d="M394.7,410.4h-78.9c-4.4,0-7.9,3.5-7.9,7.9c0,4.4,3.5,7.9,7.9,7.9h78.9c4.4,0,7.9-3.5,7.9-7.9
	C402.5,414,399,410.4,394.7,410.4z"/>
<path class="st1" d="M315.7,394.6h63.1c4.4,0,7.9-3.5,7.9-7.9s-3.5-7.9-7.9-7.9h-63.1c-4.4,0-7.9,3.5-7.9,7.9
	S311.4,394.6,315.7,394.6L315.7,394.6z"/>
<path class="st1" d="M380.8,194.1c-1.3,1.6-1.9,3.7-1.7,5.8c0.2,2.1,1.3,4,2.9,5.3l17.4,14c3.4,2.7,8.4,2.2,11.1-1.2l14-17.4h0
	c1.4-1.6,2.1-3.7,1.9-5.8c-0.2-2.1-1.2-4.1-2.9-5.4c-1.7-1.3-3.8-2-5.9-1.7s-4,1.3-5.3,3l-2.1,2.6c-15-72.4-69.3-123-140.9-130.2h0
	c-4.3-0.4-8.2,2.7-8.6,7.1c-0.4,4.3,2.7,8.2,7.1,8.6c76.6,7.7,115.1,63,126.8,116l-2.4-2h0c-1.6-1.3-3.7-1.9-5.8-1.7
	C384,191.4,382.1,192.5,380.8,194.1L380.8,194.1z"/>
<path class="st1" d="M92.8,279.5c1.3-1.6,1.9-3.7,1.7-5.8c-0.2-2.1-1.3-4-2.9-5.3l-17.4-14c-3.4-2.7-8.4-2.2-11.1,1.2l-14,17.4v0
	c-1.4,1.6-2,3.7-1.9,5.8c0.2,2.1,1.2,4.1,2.9,5.4c1.7,1.3,3.8,2,5.9,1.7c2.1-0.3,4-1.3,5.3-3l2.1-2.6c15.1,72.4,69.3,123,141,130.2
	c0.3,0,0.5,0,0.8,0c4.2,0,7.7-3.3,7.9-7.5c0.2-4.2-2.9-7.8-7.1-8.2c-76.6-7.7-115.1-63-126.8-116l2.4,2c1.6,1.3,3.7,1.9,5.8,1.7
	C89.6,282.1,91.5,281.1,92.8,279.5L92.8,279.5z"/>
</svg>

<svg width="474" height="474" viewBox="0 0 474 474" fill="none" xmlns="http://www.w3.org/2000/svg">
<g clip-path="url(#clip0_493_376)">
<mask id="mask0_493_376" style="mask-type:luminance" maskUnits="userSpaceOnUse" x="0" y="0" width="237" height="230">
<path d="M236.8 0H0V229.8H236.8V0Z" fill="white"/>
</mask>
<g mask="url(#mask0_493_376)">
<path d="M31.6 228.9H205.2C213.6 228.9 221.6 225.6 227.5 219.6C233.4 213.7 236.7 205.7 236.7 197.3V31.6C236.7 23.2 233.4 15.2 227.5 9.3C221.6 3.3 213.6 0 205.2 0H31.6C23.2 0 15.2 3.3 9.2 9.3C3.3 15.2 0 23.2 0 31.6V197.4C0 205.8 3.3 213.8 9.2 219.7C15.2 225.6 23.2 228.9 31.6 228.9ZM205.2 213.1H31.6C27.4 213.1 23.4 211.4 20.4 208.5C17.4 205.5 15.8 201.5 15.8 197.3V78.9H221V197.3C221 201.5 219.3 205.5 216.4 208.5C213.4 211.5 209.4 213.1 205.2 213.1ZM31.6 15.8H205.3C209.5 15.8 213.5 17.5 216.5 20.4C219.5 23.4 221.1 27.4 221.1 31.6V63.2H15.8V31.6C15.8 27.4 17.5 23.4 20.4 20.4C23.4 17.4 27.4 15.8 31.6 15.8Z" fill="#0E53BE"/>
</g>
<mask id="mask1_493_376" style="mask-type:luminance" maskUnits="userSpaceOnUse" x="236" y="243" width="238" height="231">
<path d="M473.6 243.8H236.8V473.6H473.6V243.8Z" fill="white"/>
</mask>
<g mask="url(#mask1_493_376)">
<path d="M442 244.7H268.4C260 244.7 252 248 246.1 253.9C240.2 259.8 236.8 267.9 236.8 276.2V442C236.8 450.4 240.1 458.4 246.1 464.3C252 470.2 260 473.6 268.4 473.6H442C450.4 473.6 458.4 470.3 464.3 464.3C470.2 458.4 473.6 450.4 473.6 442V276.3C473.6 267.9 470.3 259.9 464.3 254C458.4 248 450.4 244.7 442 244.7ZM268.4 260.5H442C446.2 260.5 450.2 262.2 453.2 265.1C456.2 268.1 457.8 272.1 457.8 276.3V307.9H252.6V276.3C252.6 272.1 254.3 268.1 257.2 265.1C260.2 262.1 264.2 260.5 268.4 260.5ZM442 457.8H268.4C264.2 457.8 260.2 456.1 257.2 453.2C254.2 450.3 252.6 446.2 252.6 442V323.6H457.8V442C457.8 446.2 456.1 450.2 453.2 453.2C450.3 456.2 446.2 457.8 442 457.8Z" fill="#0E53BE"/>
</g>
<path d="M39.5 47.4H47.4C51.8 47.4 55.3 43.9 55.3 39.5C55.3 35.1 51.8 31.6 47.4 31.6H39.5C35.1 31.6 31.6 35.1 31.6 39.5C31.6 43.9 35.1 47.4 39.5 47.4Z" fill="#0E53BE"/>
<path d="M78.9 47.4H86.8C91.2 47.4 94.7 43.9 94.7 39.5C94.7 35.1 91.2 31.6 86.8 31.6H78.9C74.5 31.6 71 35.1 71 39.5C71 43.9 74.6 47.4 78.9 47.4Z" fill="#0E53BE"/>
<path d="M150 47.4H197.4C201.8 47.4 205.3 43.9 205.3 39.5C205.3 35.1 201.8 31.6 197.4 31.6H150C145.6 31.6 142.1 35.1 142.1 39.5C142.1 43.9 145.6 47.4 150 47.4Z" fill="#0E53BE"/>
<path d="M47.4 102.6H39.5C35.1 102.6 31.6 106.1 31.6 110.5C31.6 114.9 35.1 118.4 39.5 118.4H47.4C51.8 118.4 55.3 114.9 55.3 110.5C55.3 106.1 51.7 102.6 47.4 102.6Z" fill="#0E53BE"/>
<path d="M47.4 134.2H39.5C35.1 134.2 31.6 137.7 31.6 142.1C31.6 146.5 35.1 150 39.5 150H47.4C51.8 150 55.3 146.5 55.3 142.1C55.3 137.7 51.7 134.2 47.4 134.2Z" fill="#0E53BE"/>
<path d="M47.4 165.7H39.5C35.1 165.7 31.6 169.2 31.6 173.6C31.6 178 35.1 181.5 39.5 181.5H47.4C51.8 181.5 55.3 178 55.3 173.6C55.3 169.3 51.7 165.7 47.4 165.7Z" fill="#0E53BE"/>
<path d="M157.9 102.6H150C145.6 102.6 142.1 106.1 142.1 110.5C142.1 114.9 145.6 118.4 150 118.4H157.9C162.3 118.4 165.8 114.9 165.8 110.5C165.8 106.1 162.2 102.6 157.9 102.6Z" fill="#0E53BE"/>
<path d="M78.9 118.4H118.4C122.8 118.4 126.3 114.9 126.3 110.5C126.3 106.1 122.8 102.6 118.4 102.6H78.9C74.5 102.6 71 106.1 71 110.5C71 114.9 74.6 118.4 78.9 118.4Z" fill="#0E53BE"/>
<path d="M197.3 165.7H189.4C185 165.7 181.5 169.2 181.5 173.6C181.5 178 185 181.5 189.4 181.5H197.3C201.7 181.5 205.2 178 205.2 173.6C205.2 169.3 201.7 165.7 197.3 165.7Z" fill="#0E53BE"/>
<path d="M157.9 165.7H78.9C74.5 165.7 71 169.2 71 173.6C71 178 74.5 181.5 78.9 181.5H157.8C162.2 181.5 165.7 178 165.7 173.6C165.8 169.3 162.2 165.7 157.9 165.7Z" fill="#0E53BE"/>
<path d="M78.9 150H142C146.4 150 149.9 146.5 149.9 142.1C149.9 137.7 146.4 134.2 142 134.2H78.9C74.5 134.2 71 137.7 71 142.1C71 146.5 74.6 150 78.9 150Z" fill="#0E53BE"/>
<path d="M276.3 292H284.2C288.6 292 292.1 288.5 292.1 284.1C292.1 279.7 288.6 276.2 284.2 276.2H276.3C271.9 276.2 268.4 279.7 268.4 284.1C268.4 288.5 271.9 292 276.3 292Z" fill="#0E53BE"/>
<path d="M315.7 292H323.6C328 292 331.5 288.5 331.5 284.1C331.5 279.7 328 276.2 323.6 276.2H315.7C311.3 276.2 307.8 279.7 307.8 284.1C307.8 288.5 311.4 292 315.7 292Z" fill="#0E53BE"/>
<path d="M386.8 292H434.2C438.6 292 442.1 288.5 442.1 284.1C442.1 279.7 438.6 276.2 434.2 276.2H386.8C382.4 276.2 378.9 279.7 378.9 284.1C378.9 288.5 382.4 292 386.8 292Z" fill="#0E53BE"/>
<path d="M284.2 347.3H276.3C271.9 347.3 268.4 350.8 268.4 355.2C268.4 359.6 271.9 363.1 276.3 363.1H284.2C288.6 363.1 292.1 359.6 292.1 355.2C292 350.8 288.5 347.3 284.2 347.3Z" fill="#0E53BE"/>
<path d="M284.2 378.9H276.3C271.9 378.9 268.4 382.4 268.4 386.8C268.4 391.2 271.9 394.7 276.3 394.7H284.2C288.6 394.7 292.1 391.2 292.1 386.8C292.1 382.4 288.5 378.9 284.2 378.9Z" fill="#0E53BE"/>
<path d="M284.2 410.4H276.3C271.9 410.4 268.4 413.9 268.4 418.3C268.4 422.7 271.9 426.2 276.3 426.2H284.2C288.6 426.2 292.1 422.7 292.1 418.3C292 414 288.5 410.4 284.2 410.4Z" fill="#0E53BE"/>
<path d="M394.7 347.3H386.8C382.4 347.3 378.9 350.8 378.9 355.2C378.9 359.6 382.4 363.1 386.8 363.1H394.7C399.1 363.1 402.6 359.6 402.6 355.2C402.5 350.8 399 347.3 394.7 347.3Z" fill="#0E53BE"/>
<path d="M315.7 363.1H355.2C359.6 363.1 363.1 359.6 363.1 355.2C363.1 350.8 359.6 347.3 355.2 347.3H315.7C311.3 347.3 307.8 350.8 307.8 355.2C307.8 359.5 311.4 363.1 315.7 363.1Z" fill="#0E53BE"/>
<path d="M434.1 410.4H426.2C421.8 410.4 418.3 413.9 418.3 418.3C418.3 422.7 421.8 426.2 426.2 426.2H434.1C438.5 426.2 442 422.7 442 418.3C442 414 438.5 410.4 434.1 410.4Z" fill="#0E53BE"/>
<path d="M394.7 410.4H315.8C311.4 410.4 307.9 413.9 307.9 418.3C307.9 422.7 311.4 426.2 315.8 426.2H394.7C399.1 426.2 402.6 422.7 402.6 418.3C402.5 414 399 410.4 394.7 410.4Z" fill="#0E53BE"/>
<path d="M315.7 394.6H378.8C383.2 394.6 386.7 391.1 386.7 386.7C386.7 382.3 383.2 378.8 378.8 378.8H315.7C311.3 378.8 307.8 382.3 307.8 386.7C307.8 391.1 311.4 394.6 315.7 394.6Z" fill="#0E53BE"/>
<path d="M380.8 194.1C379.5 195.7 378.9 197.8 379.1 199.9C379.3 202 380.4 203.9 382 205.2L399.4 219.2C402.8 221.9 407.8 221.4 410.5 218L424.5 200.6C425.9 199 426.6 196.9 426.4 194.8C426.2 192.7 425.2 190.7 423.5 189.4C421.8 188.1 419.7 187.4 417.6 187.7C415.5 188 413.6 189 412.3 190.7L410.2 193.3C395.2 120.9 340.9 70.3 269.3 63.1C265 62.7 261.1 65.8 260.7 70.2C260.3 74.5 263.4 78.4 267.8 78.8C344.4 86.5 382.9 141.8 394.6 194.8L392.2 192.8C390.6 191.5 388.5 190.9 386.4 191.1C384 191.4 382.1 192.5 380.8 194.1Z" fill="#0E53BE"/>
<path d="M92.8 279.5C94.1 277.9 94.7 275.8 94.5 273.7C94.3 271.6 93.2 269.7 91.6 268.4L74.2 254.4C70.8 251.7 65.8 252.2 63.1 255.6L49.1 273C47.7 274.6 47.1 276.7 47.2 278.8C47.4 280.9 48.4 282.9 50.1 284.2C51.8 285.5 53.9 286.2 56 285.9C58.1 285.6 60 284.6 61.3 282.9L63.4 280.3C78.5 352.7 132.7 403.3 204.4 410.5C204.7 410.5 204.9 410.5 205.2 410.5C209.4 410.5 212.9 407.2 213.1 403C213.3 398.8 210.2 395.2 206 394.8C129.4 387.1 90.9 331.8 79.2 278.8L81.6 280.8C83.2 282.1 85.3 282.7 87.4 282.5C89.6 282.1 91.5 281.1 92.8 279.5Z" fill="#0E53BE"/>
</g>
<defs>
<clipPath id="clip0_493_376">
<rect width="473.6" height="473.6" fill="white"/>
</clipPath>
</defs>
</svg>
